X:279
T: VATER UNSER BETEN WIR
N: B0757
O: Europa, Mitteleuropa, Deutschland, Brandenburg
R: geistliches Volks - Lied, religioes, Gebet
M: 4/4
L: 1/8
K: F
FG | A2A2A2B2 | c4z2
cc | fedccBBA | A2G2z2
FG | A2A2A2B2 | c4z2
cc | fedccBBA | A2G2z2
EF | G2G2G2A2 | B4z2
BB | A2cBA2G2 | F4z2

